X: 1
T: The Three Little Drummers
T: Holly Bush, The
M: 6/8
L: 1/8
R: jig
K: Gmaj
BAG GDG|GDG ABc|~B3 edc|BdB cBA|
BAG GDG|GDG ABc|~B3 edc|1 def g2d:|2 def g2f||
|:gdd gdd|gdd dcB|Acc Acc|Acc c2c|
~B3 ~c3|d2d ABc|~B3 edc|1 def g3f:|2 def g2d||
